X: 10
T: No_105_Dancing_Song.krn
N: Derived from No_105_Dancing_Song.krn
%%abc-version 2.0
%%abcx-abcm2ps-target-version 5.9.1 (29 Sep 2008)
%%abc-creator hum2abc beta
%%abcx-conversion-date 2019/03/15 08:35:44
%%humdrum-veritas 1590639979
%%humdrum-veritas-data 875669982
%%linebreak <none>
%%barnumbers 0
L: 1/8
M: 2/4
K: D clef=bass
[K:clef=bass][M:2/4]z2z z/ B,/ | 
B,2B,2 | 
(3B,F,F,-F,2 | 
(3B,F,F, F,3/F,/ | 
F,2B,, z/ B,/ | 
B,2B,2 | 
(3B,F,F,-F,2 | 
(3B,F,F, F,3/F,/ [I:setbarnb 9]| 
F,2z z/ B,/ | 
(3B,F,F, F,3/F,/ | 
(3F,E,E,-E,2 | 
(3E,D,D, D,3/D,/ | 
(3D,B,,B,, z z/ D,/ | 
D,3/D,/ E,3/E,/ | 
E,D,-D,2 | 
(3D,D,C, B,,B,, | 
B,,4 | 
z2z z/ B,/ :|]  



